src/assets/images/element_2.svg

<svg width="126" height="152" viewBox="0 0 126 152" fill="none" xmlns="http://www.w3.org/2000/svg">
<g filter="url(#filter0_b_2_45)">
<path d="M117.012 117.012C123.197 123.197 126.29 126.29 125.774 130.628C125.257 134.966 122.048 136.927 115.63 140.849C110.152 144.197 104.252 146.85 98.0616 148.727C86.1015 152.356 73.4313 152.978 61.1731 150.54C48.915 148.101 37.4474 142.678 27.7861 134.749C18.1248 126.82 10.568 116.631 5.78516 105.084C1.00228 93.5371 -0.859083 80.9888 0.365959 68.5507C1.591 56.1126 5.86463 44.1686 12.8083 33.7767C19.752 23.3847 29.1513 14.8656 40.1738 8.974C45.8785 5.92479 51.9268 3.62807 58.1676 2.12168C65.4792 0.356842 69.135 -0.525578 72.5675 2.17697C76 4.87951 76 9.25301 76 18L76 31.2568C76 35.8448 76 38.1388 75.4731 39.6102C74.8922 41.2323 74.8269 41.3413 73.6702 42.6182C72.6209 43.7765 69.0315 45.6951 61.8527 49.5322C57.5 51.8588 53.7883 55.2229 51.0464 59.3265C48.3044 63.4302 46.6168 68.1467 46.133 73.0584C45.6493 77.97 46.3843 82.9252 48.273 87.4849C50.1617 92.0446 53.1458 96.0682 56.9609 99.1992C60.7761 102.33 65.3045 104.472 70.1451 105.435C74.9856 106.398 79.989 106.152 84.7119 104.719C92.5013 102.356 96.3961 101.175 97.9571 101.252C99.6779 101.337 99.8011 101.368 101.359 102.104C102.772 102.772 104.394 104.394 107.638 107.638L117.012 117.012Z" fill="url(#paint0_linear_2_45)"/>
</g>
<defs>
<filter id="filter0_b_2_45" x="-30" y="-29.54" width="185.829" height="211.54" filterUnits="userSpaceOnUse" color-interpolation-filters="sRGB">
<feFlood flood-opacity="0" result="BackgroundImageFix"/>
<feGaussianBlur in="BackgroundImageFix" stdDeviation="15"/>
<feComposite in2="SourceAlpha" operator="in" result="effect1_backgroundBlur_2_45"/>
<feBlend mode="normal" in="SourceGraphic" in2="effect1_backgroundBlur_2_45" result="shape"/>
</filter>
<linearGradient id="paint0_linear_2_45" x1="76" y1="0" x2="76" y2="152" gradientUnits="userSpaceOnUse">
<stop stop-color="#FF5B96" stop-opacity="0.4"/>
<stop offset="1" stop-color="#FF5B79" stop-opacity="0.25"/>
</linearGradient>
</defs>
</svg>

<svg xmlns="http://www.w3.org/2000/svg" width="126" height="152" fill="none" xmlns:v="https://vecta.io/nano"><g filter="url(#A)"><path d="M117.012 117.012c6.185 6.185 9.278 9.278 8.762 13.616s-3.726 6.299-10.144 10.221a75.95 75.95 0 0 1-17.568 7.878 75.99 75.99 0 0 1-36.888 1.813c-12.258-2.439-23.726-7.862-33.387-15.791A76 76 0 0 1 40.174 8.974a76 76 0 0 1 17.994-6.852c7.312-1.765 10.967-2.647 14.4.055S76 9.253 76 18v13.257c0 4.588 0 6.882-.527 8.353-.581 1.622-.646 1.731-1.803 3.008-1.049 1.158-4.639 3.077-11.817 6.914a30.01 30.01 0 0 0-4.892 49.667c3.815 3.131 8.344 5.273 13.184 6.236s9.844.717 14.567-.716c7.789-2.363 11.684-3.544 13.245-3.467 1.721.085 1.844.116 3.402.852 1.413.668 3.035 2.29 6.279 5.534l9.374 9.374z" fill="url(#B)"/></g><defs><filter id="A" x="-30" y="-29.54" width="185.829" height="211.54" filterUnits="userSpaceOnUse" color-interpolation-filters="sRGB"><feFlood flood-opacity="0"/><feGaussianBlur stdDeviation="15"/><feComposite in2="SourceAlpha" operator="in"/><feBlend in="SourceGraphic"/></filter><linearGradient id="B" x1="76" y1="0" x2="76" y2="152" gradientUnits="userSpaceOnUse"><stop stop-color="#ff5b96" stop-opacity=".4"/><stop offset="1" stop-color="#ff5b79" stop-opacity=".25"/></linearGradient></defs></svg>
